svg/capacitor_large.svg

<svg xmlns="http://www.w3.org/2000/svg" width="24" height="24" viewBox="0 0 24 24"><title>px_capacitor_24px</title><path fill="none" d="M0 0h24v24H0z"/><path d="M17 4h-1V2h-3v2h-2V2H8v2H7a2 2 0 0 0-2 2v14a2 2 0 0 0 2 2h10a2 2 0 0 0 2-2V6a2 2 0 0 0-2-2z"/></svg>

<svg xmlns="http://www.w3.org/2000/svg" width="24" height="24" viewBox="0 0 24 24">
  <g>
    <rect width="24" height="24" fill="none"/>
    <path d="M17,4H16V2H13V4H11V2H8V4H7A2,2,0,0,0,5,6V20a2,2,0,0,0,2,2H17a2,2,0,0,0,2-2V6A2,2,0,0,0,17,4Z"/>
  </g>
</svg>
